public/img/placeholder-indigo.svg

<svg width="192" height="128" fill="none" xmlns="http://www.w3.org/2000/svg"><g clip-path="url(#clip0)"><rect width="192" height="128" rx="12" fill="#EEF2FF"/><circle cx="78" cy="28" r="12" fill="#C7D2FE"/><path d="M52 48l32 32h16l40 32H-12l64-64z" fill="#818CF8"/><path d="M116 32l16 16h16l64 56H44l72-72z" fill="#A5B4FC"/><path d="M116 38v14l-16 16 44 36H50l66-66z" fill="#C7D2FE"/><path fill="#E0E7FF" d="M0 96h192v40H0z"/></g><defs><clipPath id="clip0"><rect width="192" height="128" rx="12" fill="#fff"/></clipPath></defs></svg>

<svg width="192" height="128" viewBox="0 0 192 128" fill="none" xmlns="http://www.w3.org/2000/svg">
<g clip-path="url(#clip0)">
<rect width="192" height="128" rx="12" fill="#EEF2FF"/>
<circle cx="78" cy="28" r="12" fill="#C7D2FE"/>
<path d="M52 48L84 80H100L140 112H-12L52 48Z" fill="#818CF8"/>
<path d="M116 32L132 48H148L212 104H44L116 32Z" fill="#A5B4FC"/>
<path d="M116 38V52L100 68L144 104H50L116 38Z" fill="#C7D2FE"/>
<rect y="96" width="192" height="40" fill="#E0E7FF"/>
</g>
<defs>
<clipPath id="clip0">
<rect width="192" height="128" rx="12" fill="white"/>
</clipPath>
</defs>
</svg>
